src/actions/16/mail-receive.svg

<svg version="1.1" viewBox="0 0 16 16" xmlns="http://www.w3.org/2000/svg">
 <defs>
  <style id="current-color-scheme" type="text/css">.ColorScheme-Text {
        color:#363636;
      }</style>
 </defs>
 <path d="m7.5 1c-0.277 0-0.5 0.223-0.5 0.5v4.793l-1.2676-1.2676c-0.19587-0.19587-0.51116-0.19587-0.70703 0s-0.19587 0.51116 0 0.70703l2.1211 2.1211c0.047012 0.047012 0.10324 0.08407 0.16602 0.10938 0.057904 0.023336 0.12105 0.037109 0.1875 0.037109 0.066453 0 0.1296-0.013774 0.1875-0.037109 0.062778-0.0253 0.119-0.062358 0.16602-0.10938l2.1211-2.1211c0.19587-0.19587 0.19587-0.51116 0-0.70703s-0.51116-0.19587-0.70703 0l-1.2676 1.2676v-4.793c0-0.277-0.223-0.5-0.5-0.5zm-2.5 2.0293c-1.1408 0.13511-1.8836 0.84678-2.1699 1.2207l-2.625 3.4277c-0.13316 0.17448-0.20523 0.38793-0.20508 0.60742v3.7148c0 1.108 0.892 2 2 2h11c1.108 0 1.9979-0.892 2-2v-3.7148c1.48e-4 -0.21949-0.071918-0.43294-0.20508-0.60742l-2.625-3.4277c-0.28628-0.37392-1.0291-1.0856-2.1699-1.2207v1.0156c0.76278 0.10437 1.1244 0.48517 1.375 0.8125l2.4062 3.1426h-3.8321a2.5 2.5 0 0 1-2.4492 2 2.5 2.5 0 0 1-2.4453-2h-3.8359l2.4062-3.1426c0.25061-0.32733 0.61222-0.70813 1.375-0.8125v-1.0156zm-4 5.9707h3.3418a3.5 3.5 0 0 0 3.1582 2 3.5 3.5 0 0 0 3.1523-2h3.3477v3c0 0.554-0.446 1-1 1h-11c-0.554 0-1-0.446-1-1v-3z" style="fill:currentColor" class="ColorScheme-Text"/>
</svg>

<svg xmlns="http://www.w3.org/2000/svg" viewBox="0 0 16 16">
    <path d="M7.5 1c-.277 0-.5.223-.5.5v4.793L5.732 5.025a.499.499 0 1 0-.707.707l2.121 2.122a.497.497 0 0 0 .541.109.496.496 0 0 0 .167-.11l2.12-2.12a.499.499 0 1 0-.706-.708L8 6.293V1.5c0-.277-.223-.5-.5-.5zM5 3.03a3.303 3.303 0 0 0-2.17 1.22L.205 7.678A1 1 0 0 0 0 8.285V12c0 1.108.892 2 2 2h11a1.997 1.997 0 0 0 2-2V8.285a1 1 0 0 0-.205-.607L12.17 4.25A3.303 3.303 0 0 0 10 3.03v1.015c.763.104 1.124.485 1.375.812L13.781 8H9.95a2.5 2.5 0 0 1-2.45 2 2.5 2.5 0 0 1-2.444-2H1.219l2.406-3.143c.25-.327.612-.708 1.375-.812V3.029zM1 9h3.342A3.5 3.5 0 0 0 7.5 11a3.5 3.5 0 0 0 3.152-2H14v3c0 .554-.446 1-1 1H2c-.554 0-1-.446-1-1V9z" style="fill:currentColor;color:#050505;opacity:.7"/>
</svg>
